icons/op-design-24.svg

<svg width="24" height="24" viewBox="0 0 24 24" fill="none" xmlns="http://www.w3.org/2000/svg">
<path d="M19.226 4L19.7416 4.29013C20.3946 4.97917 19.6041 5.84955 19.6041 5.84955C18.0918 7.40898 16.6139 9.00467 15.136 10.5641C14.6548 11.0718 14.4486 11.2169 14.0705 11.9059C13.6237 12.6675 13.2112 13.5016 12.8675 14.2995L10.1866 11.4707C10.1866 11.4707 12.5238 10.4916 13.3487 9.62118C14.5173 8.35188 15.7203 7.11885 16.9232 5.84955C17.4044 5.34183 17.8512 4.76158 18.4011 4.32639L19.226 4ZM4 19.7756C6.09658 19.2316 5.89036 17.4183 7.12769 14.2995C7.74636 12.7763 9.36176 12.3411 9.36176 12.3411L12.0426 15.1698C12.0426 15.1698 12.0426 21.2262 4 19.7756Z" fill="black"/>
</svg>

<svg xmlns="http://www.w3.org/2000/svg" width="24" height="24" viewBox="0 0 24 24"><path d="m19.226 4 .516.29c.653.689-.138 1.56-.138 1.56-1.512 1.559-2.99 3.155-4.468 4.714-.481.508-.687.653-1.066 1.342a22.32 22.32 0 0 0-1.203 2.394l-2.68-2.829s2.337-.979 3.162-1.85c1.168-1.269 2.371-2.502 3.574-3.771.481-.508.928-1.088 1.478-1.524L19.226 4ZM4 19.776c2.097-.544 1.89-2.358 3.128-5.476.618-1.524 2.234-1.959 2.234-1.959l2.681 2.829s0 6.056-8.043 4.606Z"/></svg>
